share/icons/Flat-Remix-Blue-Dark/mimetypes/scalable/gnome-mime-text-x-makefile.svg

<svg xmlns="http://www.w3.org/2000/svg" xmlns:xlink="http://www.w3.org/1999/xlink" width="36pt" height="36pt" version="1.1" viewBox="0 0 36 36"> <defs> <clipPath id="clip1"> <path d="M 20 2 L 31 2 L 31 13 L 20 13 Z M 20 2"/> </clipPath> <clipPath id="clip2"> <path d="M 20.515625 2.625 L 30.328125 12.4375 L 22.023438 12.4375 C 21.292969 12.4375 20.515625 11.660156 20.515625 10.929688 Z M 20.515625 2.625"/> </clipPath> <image id="image6" width="36" height="36" xlink:href="data:image/png;base64,iVBORw0KGgoAAAANSUhEUgAAACQAAAAkCAYAAADhAJiYAAAABmJLR0QA/wD/AP+gvaeTAAAAmklEQVRYhe3T0QqCQBBG4aOtYEoUvf9Lildltl00C4tkbBeTIP+BAUEYP1YW1Pcqh53B9kbgaVPcwQF0tAmGSrMZ6AKcDQXw+AUVHEAtcAUaewYYgYmC3+cBCkAPnDJQMcoDVNnebgEqQnmAclTz4d0I3P4JStc9AjXvk4qLWQV53LLeEOl05gw4A3dgcPiuUkoppZRSSqk99gLWvSJpuDnlsAAAAABJRU5ErkJggg=="/> </defs> <g> <path style="fill:rgb(90.196%,90.196%,90.196%)" d="M 7.347656 3.152344 C 6.675781 3.152344 6.042969 3.785156 6.042969 4.457031 L 6.042969 31.847656 C 6.042969 32.480469 6.714844 33.152344 7.347656 33.152344 L 28.21875 33.152344 C 28.851562 33.152344 29.523438 32.480469 29.523438 31.847656 L 29.523438 11.632812 L 21.042969 3.152344 Z M 7.347656 3.152344"/> <g clip-path="url(#clip1)"> <g clip-path="url(#clip2)"> <use xlink:href="#image6"/> </g> </g> <path style="fill:rgb(100.000%,100.000%,100.000%)" d="M 21.042969 3.152344 L 29.523438 11.632812 L 22.347656 11.632812 C 21.714844 11.632812 21.042969 10.960938 21.042969 10.328125 Z M 21.042969 3.152344"/> <path style="fill:rgb(0%,0%,0%);fill-opacity:0.352941" d="M 22.160156 16.734375 C 22.898438 16.960938 22.253906 18.011719 23.308594 18.53125 C 24.519531 19.121094 25.117188 17.632812 25.84375 18.695312 C 26.570312 19.757812 24.84375 19.59375 24.890625 20.84375 C 24.941406 22.09375 26.648438 21.828125 26.007812 22.933594 C 25.367188 24.035156 24.65625 22.585938 23.496094 23.246094 C 22.335938 23.910156 23.445312 25.132812 22.078125 25.171875 C 20.710938 25.214844 21.722656 23.929688 20.515625 23.339844 C 19.308594 22.75 18.707031 24.238281 17.980469 23.175781 C 17.253906 22.113281 18.984375 22.277344 18.933594 21.027344 C 18.886719 19.777344 17.175781 20.042969 17.816406 18.9375 C 18.460938 17.835938 19.171875 19.28125 20.332031 18.621094 C 21.492188 17.960938 20.382812 16.738281 21.75 16.695312 C 21.921875 16.691406 22.054688 16.703125 22.160156 16.734375 Z M 22.148438 19.917969 C 21.539062 19.800781 20.9375 20.15625 20.808594 20.71875 C 20.679688 21.28125 21.066406 21.832031 21.679688 21.953125 C 22.289062 22.070312 22.886719 21.710938 23.015625 21.152344 C 23.148438 20.589844 22.757812 20.039062 22.148438 19.917969 Z M 22.148438 19.917969"/> <path style="fill:rgb(0%,0%,0%);fill-opacity:0.352941" d="M 16.292969 11.515625 C 17.03125 11.742188 16.382812 12.796875 17.441406 13.3125 C 18.648438 13.902344 19.25 12.414062 19.976562 13.476562 C 20.699219 14.539062 18.972656 14.375 19.023438 15.625 C 19.070312 16.875 20.78125 16.609375 20.136719 17.714844 C 19.496094 18.816406 18.785156 17.371094 17.625 18.03125 C 16.464844 18.691406 17.574219 19.914062 16.207031 19.957031 C 14.839844 19.996094 15.855469 18.710938 14.648438 18.121094 C 13.4375 17.53125 12.835938 19.023438 12.113281 17.957031 C 11.386719 16.894531 13.113281 17.0625 13.066406 15.808594 C 13.015625 14.558594 11.304688 14.824219 11.949219 13.722656 C 12.589844 12.617188 13.300781 14.066406 14.460938 13.40625 C 15.621094 12.742188 14.511719 11.519531 15.878906 11.480469 C 16.050781 11.472656 16.1875 11.484375 16.292969 11.515625 Z M 16.277344 14.699219 C 15.667969 14.582031 15.070312 14.941406 14.9375 15.5 C 14.808594 16.0625 15.199219 16.613281 15.808594 16.734375 C 16.417969 16.855469 17.019531 16.496094 17.148438 15.933594 C 17.277344 15.371094 16.886719 14.820312 16.277344 14.699219 Z M 16.277344 14.699219"/> <path style="fill:rgb(0%,0%,0%);fill-opacity:0.352941" d="M 14.335938 18.691406 C 15.074219 18.917969 14.425781 19.96875 15.484375 20.488281 C 16.691406 21.078125 17.292969 19.585938 18.019531 20.652344 C 18.746094 21.714844 17.015625 21.546875 17.066406 22.800781 C 17.113281 24.050781 18.824219 23.785156 18.183594 24.886719 C 17.539062 25.992188 16.828125 24.542969 15.667969 25.203125 C 14.507812 25.867188 15.617188 27.089844 14.25 27.128906 C 12.882812 27.171875 13.898438 25.886719 12.691406 25.296875 C 11.480469 24.707031 10.882812 26.195312 10.15625 25.132812 C 9.429688 24.070312 11.15625 24.234375 11.109375 22.984375 C 11.058594 21.734375 9.351562 22 9.992188 20.894531 C 10.632812 19.789062 11.34375 21.238281 12.503906 20.578125 C 13.664062 19.917969 12.554688 18.695312 13.921875 18.652344 C 14.09375 18.648438 14.230469 18.65625 14.335938 18.691406 Z M 14.320312 21.875 C 13.710938 21.753906 13.113281 22.113281 12.984375 22.675781 C 12.851562 23.238281 13.242188 23.789062 13.851562 23.910156 C 14.460938 24.027344 15.0625 23.667969 15.191406 23.109375 C 15.320312 22.546875 14.929688 21.996094 14.320312 21.875 Z M 14.320312 21.875"/> </g> </svg>

<svg width="36pt" height="36pt" version="1.1" viewBox="0 0 36 36" xmlns="http://www.w3.org/2000/svg"><defs><filter id="a" x="-.192" y="-.192" width="1.384" height="1.384" color-interpolation-filters="sRGB"><feGaussianBlur stdDeviation="0.67843748"/></filter></defs><path d="m7.3477 3.9022c-0.67188 0-1.3047 0.63281-1.3047 1.3047v27.391c0 0.63281 0.67188 1.3047 1.3047 1.3047h20.871c0.63281 0 1.3047-0.67188 1.3047-1.3047v-20.215l-8.4805-8.4805z" opacity=".3"/><path d="m7.3477 3.1523c-0.67188 0-1.3047 0.63281-1.3047 1.3047v27.391c0 0.63281 0.67188 1.3047 1.3047 1.3047h20.871c0.63281 0 1.3047-0.67188 1.3047-1.3047v-20.215l-8.4805-8.4805z" fill="#e5e5e5"/><path d="m20.668 3.5272 8.4805 8.4805h-7.1758c-0.63281 0-1.3047-0.67187-1.3047-1.3047z" filter="url(#a)" opacity=".2"/><path d="m21.043 3.1523 8.4805 8.4805h-7.1758c-0.63281 0-1.3047-0.67187-1.3047-1.3047z" fill="#fff"/><path d="m22.16 16.734c0.73828 0.22656 0.09375 1.2773 1.1484 1.7969 1.2109 0.58984 1.8086-0.89844 2.5352 0.16406s-1 0.89844-0.95312 2.1484c0.050781 1.25 1.7578 0.98438 1.1172 2.0898-0.64062 1.1016-1.3516-0.34766-2.5117 0.3125-1.1602 0.66406-0.050782 1.8867-1.418 1.9258-1.3672 0.042969-0.35547-1.2422-1.5625-1.832s-1.8086 0.89844-2.5352-0.16406c-0.72656-1.0625 1.0039-0.89844 0.95312-2.1484-0.046875-1.25-1.7578-0.98438-1.1172-2.0898 0.64453-1.1016 1.3555 0.34375 2.5156-0.31641 1.1602-0.66016 0.050781-1.8828 1.418-1.9258 0.17188-0.003906 0.30469 0.007813 0.41016 0.039063zm-0.011718 3.1836c-0.60938-0.11719-1.2109 0.23828-1.3398 0.80078s0.25781 1.1133 0.87109 1.2344c0.60937 0.11719 1.207-0.24219 1.3359-0.80078 0.13281-0.5625-0.25781-1.1133-0.86719-1.2344z" fill-opacity=".35294"/><path d="m16.293 11.516c0.73828 0.22656 0.089843 1.2812 1.1484 1.7969 1.207 0.58984 1.8086-0.89844 2.5352 0.16406 0.72266 1.0625-1.0039 0.89844-0.95312 2.1484 0.046874 1.25 1.7578 0.98438 1.1133 2.0898-0.64062 1.1016-1.3516-0.34375-2.5117 0.31641s-0.050781 1.8828-1.418 1.9258c-1.3672 0.039063-0.35156-1.2461-1.5586-1.8359-1.2109-0.58984-1.8125 0.90234-2.5352-0.16406-0.72656-1.0625 1-0.89453 0.95312-2.1484-0.050781-1.25-1.7617-0.98438-1.1172-2.0859 0.64062-1.1055 1.3516 0.34375 2.5117-0.31641 1.1602-0.66406 0.050781-1.8867 1.418-1.9258 0.17188-0.007813 0.30859 0.003906 0.41406 0.035156zm-0.015625 3.1836c-0.60938-0.11719-1.207 0.24219-1.3398 0.80078-0.12891 0.5625 0.26172 1.1133 0.87109 1.2344s1.2109-0.23828 1.3398-0.80078c0.12891-0.5625-0.26172-1.1133-0.87109-1.2344z" fill-opacity=".35294"/><path d="m14.336 18.691c0.73828 0.22656 0.089843 1.2773 1.1484 1.7969 1.207 0.58984 1.8086-0.90234 2.5352 0.16406 0.72656 1.0625-1.0039 0.89453-0.95312 2.1484 0.046875 1.25 1.7578 0.98438 1.1172 2.0859-0.64453 1.1055-1.3555-0.34375-2.5156 0.31641-1.1602 0.66406-0.050781 1.8867-1.418 1.9258-1.3672 0.042969-0.35156-1.2422-1.5586-1.832-1.2109-0.58984-1.8086 0.89844-2.5352-0.16406s1-0.89844 0.95312-2.1484c-0.050781-1.25-1.7578-0.98438-1.1172-2.0898 0.64062-1.1055 1.3516 0.34375 2.5117-0.31641s0.050782-1.8828 1.418-1.9258c0.17188-0.003906 0.30859 0.003906 0.41406 0.039062zm-0.015626 3.1836c-0.60937-0.12109-1.207 0.23828-1.3359 0.80078-0.13281 0.5625 0.25781 1.1133 0.86719 1.2344 0.60938 0.11719 1.2109-0.24219 1.3398-0.80078 0.12891-0.5625-0.26172-1.1133-0.87109-1.2344z" fill-opacity=".35294"/></svg>
